X:1
T:Title
%%score { ( 1 3 ) | ( 2 4 ) }
L:1/8
Q:1/4=110
M:4/4
K:Bb
V:1 treble nm="Grand Piano"
V:3 treble 
V:2 bass 
V:4 bass 
V:1
 [DF]2 [FB]2 c2 F2 | d4 [FB]4 | z4 [Ee]2 [Fd]2 | c6 z2 | [Fd]2 [Ec]2 [B,DB]2 [DFA]2 | %5
w: J.~H.~Tenney * * *|||||
 [B,EG]4 [B,DF]4 | [DGB]2 [CFA]2 [CFG]2 [B,=EG]2 | F6 z2 | F2 F2 F2 F2 | F2 B2 [EA]2 [DB]2 | %10
w: |||||
 c2 d2 e2 d2 | c6 z2 | [Ff]2 [Gd]2 [Ge]2 [Fc]2 | [Fd]4 [GB]4 | z2 [Fd]2 z4 | [DB]6 z2 |] %16
w: ||||||
V:2
 [B,,B,]2 [D,B,]2[K:treble] [F,A,F]2 [A,C]2 | [B,F]4[K:bass] [D,B,]4 | %2
 [E,B,]2 [D,F,]2 .[C,G,]2 .[D,B,]2 | [F,A,F]6 z2 | [B,,B,]2 [F,A,]2 G,2 D,2 | E,4 B,,4 | %6
 G,,2 A,,B,, C,2 C,2 | [F,A,]6 z2 | [F,A,C]2 [F,CE]2 [F,B,D]2 [E,A,C]2 | B,2 F2 [C,F,]2 [B,,B,]2 | %10
 [F,A,F]2 [B,F]2 [A,CF]2 [B,F]2 | [F,A,F]6 z2 | [D,B,]2 [G,B,]2 [C,C]2 [F,A,]2 | [B,,B,]4 [E,B,]4 | %14
 [C,A,]2 .[D,B,]2 [F,B,F]2 [F,A,E]2 | [B,,B,]6 z2 |] %16
V:3
 x8 | x8 | [EG]2 [FB]2 z A, z E, | x8 | x8 | x8 | x8 | x8 | x8 | x8 | x8 | x8 | x8 | x8 | %14
 [Fe]2 z E, c2 c2 | x8 |] %16
V:4
 x4[K:treble] x4 | x4[K:bass] x4 | x8 | x8 | x8 | x8 | x8 | x8 | x8 | D,4 z4 | x8 | x8 | x8 | x8 | %14
 x8 | x8 |] %16

